X: 40269
T: Toad In The Toilet
R: jig
M: 6/8
K: Adorian
|:edB AGA|edB efg|edB dBG|gdB GB/c/d|
edB AGA|edB efg|~e3 dBG|1 BAA A2d:|2 BAA A2G||
|:~A2g efg|~A2g dBG|~A2g efg|edB dBG|
~A2g efg|~A2g dBG|~e3 dBG|BAA A2G:|
|:~A3 ~B3|gdB edB|AGA ~B3|gdB GB/c/d|
~A3 ~B3|gdB edB|deg dBG|1 BAA A2G:|2 BAA A2d||

